icons/Gherkin-Dark.svg

<svg xmlns="http://www.w3.org/2000/svg" width="256" height="256" fill="none" viewBox="0 0 256 256"><rect width="256" height="256" fill="#242938" rx="60"/><path fill="#23D96C" fill-rule="evenodd" d="M173.388 40.3156C171.78 39.3701 170.137 38.4841 168.456 37.6578C166.739 36.8333 164.97 36.029 163.176 35.3314C162.609 35.0979 162.051 34.8847 161.479 34.6685C159.912 34.092 158.333 33.4664 156.715 33.0023C145.147 29.3024 132.926 27.9558 120.805 29.0453C108.684 30.1349 96.9197 33.6375 86.2376 39.3373C75.5556 45.0372 66.1819 52.8134 58.6948 62.1867C51.2076 71.56 45.7652 82.3318 42.7036 93.8378C39.6419 105.344 39.0257 117.34 40.8927 129.088C42.7598 140.836 47.071 152.085 53.5599 162.144C60.0488 172.202 68.5783 180.856 78.6225 187.571C88.6667 194.287 100.013 198.922 111.961 201.191V226.123C165.324 218.262 212.578 176.893 216.099 122.578C218.221 89.8975 201.534 56.5334 173.388 40.3156V40.3156Z" clip-rule="evenodd"/><path fill="#173647" d="M107.156 231.583V204.982C84.7655 199.77 65.1135 186.71 51.9308 168.281C38.7482 149.852 32.9527 127.337 35.6449 105.01C38.3372 82.6837 49.3293 62.0999 66.5349 47.1662C83.7405 32.2326 105.962 23.9887 128.98 24.0001C138.911 23.9839 148.781 25.5205 158.215 28.5518C159.475 28.9092 160.785 29.3965 162.051 29.8692L163.152 30.2757C163.905 30.5639 164.472 30.7803 165.05 31.0196C166.638 31.6364 168.424 32.4205 170.573 33.4525C172.387 34.3442 174.144 35.2906 175.844 36.2919C205.064 53.1295 223.162 87.923 220.893 122.881C217.401 176.674 171.898 222.044 112.672 230.767L107.156 231.583ZM129.101 33.3832H128.986C108.016 33.3766 87.797 41.0008 72.2722 54.768C56.7475 68.5352 47.0311 87.4577 45.0197 107.843C43.0083 128.229 48.8455 148.616 61.3928 165.025C73.9402 181.434 92.2973 192.689 112.882 196.593L116.763 197.334V220.554C168.825 210.586 208.21 170.027 211.306 122.287C213.351 90.7626 197.139 59.4455 170.948 44.3634L170.906 44.3346C169.412 43.4698 167.86 42.6192 166.295 41.8496C164.415 40.9502 162.851 40.2556 161.405 39.6964C160.815 39.4514 160.328 39.2669 159.832 39.0795L158.631 38.6354C157.491 38.2117 156.411 37.8081 155.369 37.5112C146.894 34.7779 138.027 33.3835 129.101 33.3804V33.3832Z"/><path fill="#173647" fill-rule="evenodd" d="M111.176 71.5845C112.518 71.4228 113.879 71.586 115.141 72.0596C116.403 72.5331 117.525 73.3025 118.41 74.3C119.782 75.7631 120.905 77.4311 121.736 79.2409C124.688 85.5827 126.43 94.689 122.785 99.7942C118.948 98.8365 115.353 97.1196 112.224 94.7499C109.095 92.3802 106.497 89.4081 104.592 86.0178C103.627 84.16 103.085 82.1207 103.003 80.0393C103.066 77.8959 103.933 75.85 105.44 74.2909C106.948 72.7317 108.989 71.7684 111.176 71.5845V71.5845Z" clip-rule="evenodd"/><path fill="#173647" fill-rule="evenodd" d="M89.7486 93.2417C90.2397 93.2026 90.7333 93.2026 91.2244 93.2417C93.4977 93.2802 95.739 93.7706 97.812 94.683C104.37 97.4273 111.684 104.135 113.101 110.085C107.475 113.746 97.3424 113.446 90.7812 110.702C88.8271 109.775 86.9647 108.674 85.2176 107.413C83.8893 106.434 82.9034 105.078 82.3944 103.531C81.8853 101.984 81.8782 100.32 82.3742 98.7691C82.8701 97.2178 83.845 95.8541 85.165 94.8646C86.485 93.8751 88.086 93.3084 89.7486 93.2417V93.2417Z" clip-rule="evenodd"/><path fill="#173647" fill-rule="evenodd" d="M97.7964 139.006C95.74 139.966 93.488 140.459 91.2088 140.447C89.4495 140.648 87.6705 140.295 86.1316 139.438C84.5926 138.582 83.3744 137.267 82.6548 135.686C81.9352 134.105 81.7519 132.341 82.1316 130.651C82.5114 128.961 83.434 127.435 84.7654 126.294C86.3706 124.835 88.2651 123.714 90.3319 122.999C92.7418 121.998 95.3284 121.464 97.947 121.428C102.212 121.353 109.534 120.424 113.085 122.733C112.146 128.672 104.355 136.262 97.7964 139.006V139.006Z" clip-rule="evenodd"/><path fill="#173647" fill-rule="evenodd" d="M124.829 153.737C123.936 155.645 122.859 157.465 121.613 159.174C116.926 165.123 106.061 160.946 106.527 153.163C106.569 151.127 107.073 149.126 108.003 147.303C110.813 140.895 118.457 133.025 125.018 131.653C128.761 137.144 127.642 147.79 124.829 153.737Z" clip-rule="evenodd"/><path fill="#173647" fill-rule="evenodd" d="M136.308 79.0876C137.204 77.1796 138.285 75.3592 139.534 73.6509C140.42 72.6242 141.551 71.8261 142.828 71.3274C144.104 70.8287 145.487 70.6445 146.854 70.7911C149.109 70.9305 151.222 71.9164 152.75 73.5422C154.278 75.1679 155.103 77.3076 155.053 79.514C155.011 81.598 154.507 83.6485 153.577 85.5246C151.942 88.9096 149.592 91.9183 146.681 94.3527C143.771 96.7872 140.365 98.5925 136.689 99.6497C132.483 94.6252 133.498 85.4928 136.308 79.0876V79.0876Z" clip-rule="evenodd"/><path fill="#173647" fill-rule="evenodd" d="M140.411 159.177C139.07 157.687 137.983 155.996 137.191 154.169C134.381 147.764 134.478 138.176 138.224 133.14C144.782 134.515 151.656 141.327 154.457 147.735C155.387 149.61 155.89 151.658 155.933 153.74C156.402 160.603 145.562 164.668 140.411 159.177Z" clip-rule="evenodd"/><path fill="#173647" fill-rule="evenodd" d="M169.111 140.01C166.838 139.971 164.596 139.48 162.523 138.568C155.965 135.824 148.775 129.407 147.37 123.457C150.973 121.151 157.626 120.9 161.938 120.978C164.557 121.018 167.143 121.553 169.554 122.555C171.504 123.429 173.366 124.481 175.114 125.697C181.673 130.286 177.547 140.465 169.111 140.01Z" clip-rule="evenodd"/></svg>

<svg xmlns="http://www.w3.org/2000/svg" width="256" height="256" fill="none" viewBox="0 0 256 256"><rect width="256" height="256" fill="#242938" rx="60"/><path fill="#23D96C" fill-rule="evenodd" d="M173.39 40.32a75 75 0 0 0-11.91-5.65c-1.57-.58-3.15-1.2-4.76-1.67a91 91 0 0 0-70.48 6.34 89 89 0 0 0-27.55 22.85A86 86 0 0 0 42.7 93.84a85 85 0 0 0-1.8 35.25 86 86 0 0 0 12.66 33.05 88 88 0 0 0 25.06 25.43 90 90 0 0 0 33.34 13.62v24.93c53.36-7.86 100.62-49.23 104.14-103.54 2.12-32.68-14.57-66.05-42.71-82.26" clip-rule="evenodd"/><path fill="#173647" d="M107.16 231.58v-26.6a94 94 0 0 1-55.23-36.7 90 90 0 0 1-16.29-63.27 91 91 0 0 1 30.9-57.84A95.2 95.2 0 0 1 128.97 24a95 95 0 0 1 33.07 5.87l1.1.4c.75.3 1.32.51 1.9.75a78 78 0 0 1 10.8 5.27c29.21 16.84 47.31 51.63 45.04 86.6-3.49 53.78-49 99.15-108.22 107.88zm21.94-198.2h-.1a85.5 85.5 0 0 0-56.72 21.39 81.7 81.7 0 0 0-27.25 53.07 81 81 0 0 0 16.37 57.19 84.6 84.6 0 0 0 51.5 31.56l3.87.74v23.22c52.06-9.96 91.45-50.52 94.55-98.26 2.04-31.53-14.17-62.84-40.36-77.93l-.04-.03a69 69 0 0 0-11.07-5.26l-1.2-.43q-1.72-.66-3.27-1.13a86 86 0 0 0-26.27-4.13"/><path fill="#173647" fill-rule="evenodd" d="M111.18 71.58a8.4 8.4 0 0 1 7.23 2.72 19 19 0 0 1 3.33 4.94c2.95 6.34 4.69 15.45 1.05 20.55a29 29 0 0 1-10.57-5.04 28 28 0 0 1-7.63-8.73 14 14 0 0 1-1.59-5.98 8.6 8.6 0 0 1 2.44-5.75 9 9 0 0 1 5.74-2.7M89.75 93.24q.73-.06 1.47 0c2.28.04 4.52.53 6.6 1.44 6.55 2.75 13.86 9.45 15.28 15.4-5.62 3.67-15.76 3.37-22.32.62a36 36 0 0 1-5.56-3.29 8 8 0 0 1-2.83-3.88 7.7 7.7 0 0 1-.02-4.76 8 8 0 0 1 2.8-3.9 8 8 0 0 1 4.58-1.63M97.8 139a15 15 0 0 1-6.6 1.45 8.5 8.5 0 0 1-5.07-1.01 8 8 0 0 1-3.48-3.75 7.94 7.94 0 0 1 2.12-9.4 16 16 0 0 1 5.56-3.3c2.41-1 5-1.53 7.62-1.56 4.26-.08 11.58-1 15.13 1.3-.93 5.94-8.72 13.53-15.28 16.28m27.03 14.73a33 33 0 0 1-3.22 5.43c-4.68 5.95-15.55 1.78-15.08-6a13.5 13.5 0 0 1 1.47-5.87c2.81-6.4 10.46-14.28 17.02-15.65 3.74 5.5 2.62 16.14-.2 22.09m11.48-74.65q1.35-2.87 3.23-5.44a8.6 8.6 0 0 1 7.32-2.86 8.8 8.8 0 0 1 5.9 2.75 8.4 8.4 0 0 1 2.3 5.97 14 14 0 0 1-1.47 6.01 27 27 0 0 1-6.9 8.83 27 27 0 0 1-10 5.3c-4.2-5.02-3.18-14.16-.37-20.56m4.1 80.09a19 19 0 0 1-3.22-5.01c-2.8-6.4-2.71-16 1.03-21.03 6.56 1.38 13.44 8.19 16.24 14.6a14 14 0 0 1 1.47 6c.47 6.86-10.37 10.93-15.52 5.44m28.7-19.17a17 17 0 0 1-6.59-1.44c-6.56-2.75-13.75-9.16-15.15-15.11 3.6-2.3 10.26-2.56 14.57-2.48 2.62.04 5.2.57 7.61 1.58a34 34 0 0 1 5.56 3.14c6.56 4.59 2.44 14.77-6 14.31" clip-rule="evenodd"/></svg>
